images/linkedin-logo.svg

<svg width="34" height="34" viewBox="0 0 34 34" fill="none" xmlns="http://www.w3.org/2000/svg">
<path fill-rule="evenodd" clip-rule="evenodd" d="M0 2.84028C0 2.08699 0.299243 1.36456 0.8319 0.8319C1.36456 0.299243 2.08699 0 2.84028 0L31.1581 0C31.5311 0 31.9004 0.0734661 32.245 0.216204C32.5896 0.358941 32.9028 0.568155 33.1665 0.8319C33.4302 1.09564 33.6395 1.40875 33.7822 1.75335C33.9249 2.09795 33.9984 2.46729 33.9984 2.84028V31.1581C33.9984 31.5311 33.9249 31.9004 33.7822 32.245C33.6395 32.5896 33.4302 32.9028 33.1665 33.1665C32.9028 33.4302 32.5896 33.6395 32.245 33.7822C31.9004 33.9249 31.5311 33.9984 31.1581 33.9984H2.84028C2.08699 33.9984 1.36456 33.6992 0.8319 33.1665C0.299243 32.6338 0 31.9114 0 31.1581L0 2.84028ZM13.4577 12.9619H18.0617V15.2752C18.7253 13.945 20.426 12.7494 22.9808 12.7494C27.878 12.7494 29.0403 15.397 29.0403 20.2553V29.2528H24.0822V21.3616C24.0822 18.595 23.4185 17.0346 21.7306 17.0346C19.3897 17.0346 18.4158 18.7168 18.4158 21.3616V29.2528H13.4577V12.9619V12.9619ZM4.9581 29.0403H9.9162V12.7494H4.9581V29.0403ZM10.6245 7.43715C10.6245 7.85572 10.5421 8.27019 10.3819 8.6569C10.2217 9.0436 9.98692 9.39497 9.69095 9.69095C9.39497 9.98692 9.0436 10.2217 8.6569 10.3819C8.27019 10.5421 7.85572 10.6245 7.43715 10.6245C7.01858 10.6245 6.60411 10.5421 6.2174 10.3819C5.8307 10.2217 5.47933 9.98692 5.18335 9.69095C4.88738 9.39497 4.6526 9.0436 4.49242 8.6569C4.33224 8.27019 4.2498 7.85572 4.2498 7.43715C4.2498 6.59181 4.58561 5.7811 5.18335 5.18335C5.7811 4.58561 6.59181 4.2498 7.43715 4.2498C8.28249 4.2498 9.0932 4.58561 9.69095 5.18335C10.2887 5.7811 10.6245 6.59181 10.6245 7.43715V7.43715Z" fill="white"/>
</svg>

<svg width="34" height="34" fill="none" xmlns="http://www.w3.org/2000/svg"><path fill-rule="evenodd" clip-rule="evenodd" d="M0 2.84A2.84 2.84 0 012.84 0h28.318a2.84 2.84 0 012.84 2.84v28.318a2.84 2.84 0 01-2.84 2.84H2.84A2.84 2.84 0 010 31.158V2.84zm13.458 10.122h4.604v2.313c.663-1.33 2.364-2.526 4.919-2.526 4.897 0 6.06 2.648 6.06 7.506v8.998h-4.959v-7.891c0-2.767-.663-4.327-2.351-4.327-2.341 0-3.315 1.682-3.315 4.327v7.89h-4.958v-16.29zm-8.5 16.078h4.958V12.75H4.958v16.29zm5.666-21.603a3.187 3.187 0 11-6.373 0 3.187 3.187 0 016.373 0z" fill="#fff"/></svg>
